src/topics/icons/serverless.svg

<svg height="204" preserveAspectRatio="xMidYMid" viewBox="0 0 256 204" width="256" xmlns="http://www.w3.org/2000/svg"><path d="m0 161.20187h45.311538l-14.0382623 42.396015h-31.2732757zm0-80.6009275h72.0009468l-14.0369036 42.3960135h-57.9640432zm0-80.60092776h98.6917145l-14.0396211 42.39465526h-84.6520934zm143.348822 0h112.651178v42.39465526h-126.688082zm-26.688458 80.60092776h139.339229v42.3960135h-153.377492zm-26.6896807 80.6009275h166.0286377v42.396015h-180.0655414z" fill="#f26d61"/></svg>

<?xml version="1.0" encoding="UTF-8"?>
<svg width="256px" height="204px" viewBox="0 0 256 204" version="1.1" xmlns="http://www.w3.org/2000/svg" xmlns:xlink="http://www.w3.org/1999/xlink" preserveAspectRatio="xMidYMid">
    <g>
        <path d="M0,161.20187 L45.311538,161.20187 L31.2732757,203.597885 L0,203.597885 L0,161.20187 Z M0,80.6009425 L72.0009468,80.6009425 L57.9640432,122.996956 L0,122.996956 L0,80.6009425 Z M0,1.47413815e-05 L98.6917145,1.47413815e-05 L84.6520934,42.39467 L0,42.39467 L0,1.47413815e-05 Z M143.348822,1.47413815e-05 L256,1.47413815e-05 L256,42.39467 L129.311918,42.39467 L143.348822,1.47413815e-05 Z M116.660364,80.6009425 L255.999593,80.6009425 L255.999593,122.996956 L102.622101,122.996956 L116.660364,80.6009425 Z M89.9706833,161.20187 L255.999321,161.20187 L255.999321,203.597885 L75.9337796,203.597885 L89.9706833,161.20187 Z" fill="#F26D61" fill-rule="nonzero"></path>
    </g>
</svg>
